Numix/16/status/indicator-keyboard-No-7.svg

<?xml version="1.0" encoding="UTF-8" standalone="no"?>
<svg
   xmlns:dc="http://purl.org/dc/elements/1.1/"
   xmlns:cc="http://creativecommons.org/ns#"
   xmlns:rdf="http://www.w3.org/1999/02/22-rdf-syntax-ns#"
   xmlns:svg="http://www.w3.org/2000/svg"
   xmlns="http://www.w3.org/2000/svg"
   xmlns:sodipodi="http://sodipodi.sourceforge.net/DTD/sodipodi-0.dtd"
   xmlns:inkscape="http://www.inkscape.org/namespaces/inkscape"
   viewBox="0 0 16 16"
   id="svg2"
   version="1.1"
   inkscape:version="0.91 r13725"
   sodipodi:docname="indicator-keyboard-No-7.svg">
  <metadata
     id="metadata14">
    <rdf:RDF>
      <cc:Work
         rdf:about="">
        <dc:format>image/svg+xml</dc:format>
        <dc:type
           rdf:resource="http://purl.org/dc/dcmitype/StillImage" />
      </cc:Work>
    </rdf:RDF>
  </metadata>
  <defs
     id="defs12" />
  <sodipodi:namedview
     pagecolor="#ffffff"
     bordercolor="#666666"
     borderopacity="1"
     objecttolerance="10"
     gridtolerance="10"
     guidetolerance="10"
     inkscape:pageopacity="0"
     inkscape:pageshadow="2"
     inkscape:window-width="640"
     inkscape:window-height="480"
     id="namedview10"
     showgrid="false"
     inkscape:zoom="14.75"
     inkscape:cx="8"
     inkscape:cy="8"
     inkscape:window-x="65"
     inkscape:window-y="24"
     inkscape:window-maximized="0"
     inkscape:current-layer="svg2" />
  <path
     style="fill:#ececec;fill-opacity:1"
     d="M 1.5996094 0 C 0.71320937 2.9605947e-16 0 0.71320937 0 1.5996094 L 0 14.400391 C 2.9605947e-16 15.286791 0.71320937 16 1.5996094 16 L 14.400391 16 C 15.286791 16 16 15.286791 16 14.400391 L 16 1.5996094 C 16 0.71320937 15.286791 0 14.400391 0 L 1.5996094 0 z M 1.1621094 4.859375 L 1.6484375 4.859375 C 1.9544375 5.201375 2.2809062 5.596875 2.6289062 6.046875 C 2.9829063 6.490875 3.3280625 6.9460625 3.6640625 7.4140625 C 4.0000625 7.8760625 4.3116094 8.3294375 4.5996094 8.7734375 C 4.8936094 9.2174375 5.1343125 9.6055469 5.3203125 9.9355469 L 5.3203125 4.859375 L 5.9238281 4.859375 L 5.9238281 11.095703 L 5.4101562 11.095703 C 5.2961562 10.885703 5.14875 10.639422 4.96875 10.357422 C 4.79475 10.075422 4.6025781 9.7750312 4.3925781 9.4570312 C 4.1825781 9.1330313 3.9605625 8.80475 3.7265625 8.46875 C 3.4925625 8.12675 3.2593906 7.7965156 3.0253906 7.4785156 C 2.7973906 7.1545156 2.5716094 6.8503594 2.3496094 6.5683594 C 2.1336094 6.2863594 1.939625 6.0438437 1.765625 5.8398438 L 1.765625 11.095703 L 1.1621094 11.095703 L 1.1621094 4.859375 z M 9.3515625 6.3359375 C 9.6635625 6.3359375 9.9490313 6.395625 10.207031 6.515625 C 10.465031 6.629625 10.687047 6.7937656 10.873047 7.0097656 C 11.065047 7.2197656 11.212453 7.4753906 11.314453 7.7753906 C 11.422453 8.0753906 11.476562 8.4074375 11.476562 8.7734375 C 11.476562 9.1394375 11.422453 9.4734375 11.314453 9.7734375 C 11.212453 10.073438 11.065047 10.327109 10.873047 10.537109 C 10.687047 10.747109 10.465031 10.913203 10.207031 11.033203 C 9.9490312 11.147203 9.6635625 11.203125 9.3515625 11.203125 C 9.0395625 11.203125 8.7540937 11.147203 8.4960938 11.033203 C 8.2380938 10.913203 8.0142656 10.747109 7.8222656 10.537109 C 7.6362656 10.327109 7.4888594 10.073438 7.3808594 9.7734375 C 7.2788594 9.4734375 7.2285156 9.1394375 7.2285156 8.7734375 C 7.2285156 8.4074375 7.2788594 8.0753906 7.3808594 7.7753906 C 7.4888594 7.4753906 7.6362656 7.2197656 7.8222656 7.0097656 C 8.0142656 6.7937656 8.2380937 6.629625 8.4960938 6.515625 C 8.7540938 6.395625 9.0395625 6.3359375 9.3515625 6.3359375 z M 9.3515625 6.8652344 C 8.8895625 6.8652344 8.5239063 7.0406719 8.2539062 7.3886719 C 7.9839062 7.7306719 7.8496094 8.1914375 7.8496094 8.7734375 C 7.8496094 9.3554375 7.9839062 9.818156 8.2539062 10.160156 C 8.5239062 10.502156 8.8895625 10.673828 9.3515625 10.673828 C 9.8135625 10.673828 10.179219 10.502156 10.449219 10.160156 C 10.719219 9.818156 10.855469 9.3554375 10.855469 8.7734375 C 10.855469 8.1914375 10.719219 7.7306719 10.449219 7.3886719 C 10.179219 7.0406719 9.8135625 6.8652344 9.3515625 6.8652344 z M 12.375 8.8417969 L 14.837891 8.8417969 L 14.837891 9.1816406 C 14.705291 9.3415406 14.558338 9.5551188 14.398438 9.8242188 C 14.242438 10.089419 14.095478 10.391163 13.955078 10.726562 C 13.814678 11.058062 13.691237 11.410756 13.585938 11.785156 C 13.484537 12.159556 13.421837 12.529884 13.398438 12.896484 L 12.994141 12.896484 C 13.017541 12.572784 13.076322 12.229888 13.169922 11.867188 C 13.267422 11.504488 13.384984 11.1518 13.521484 10.8125 C 13.661884 10.4732 13.812756 10.161653 13.972656 9.8769531 C 14.136456 9.5922532 14.293212 9.3649594 14.445312 9.1933594 L 12.375 9.1933594 L 12.375 8.8417969 z "
     id="path4" />
</svg>

<svg xmlns="http://www.w3.org/2000/svg" viewBox="0 0 16 16">
 <path d="m 1.6 0 c -0.886 0 -1.6 0.713 -1.6 1.6 l 0 12.801 c 0 0.886 0.713 1.6 1.6 1.6 l 12.801 0 c 0.886 0 1.6 -0.713 1.6 -1.6 l 0 -12.801 c 0 -0.886 -0.713 -1.6 -1.6 -1.6 l -12.801 0 z m -0.438 4.859 l 0.486 0 c 0.306 0.342 0.632 0.737 0.98 1.188 c 0.354 0.444 0.699 0.899 1.035 1.367 c 0.336 0.462 0.648 0.915 0.936 1.359 c 0.294 0.444 0.535 0.832 0.721 1.162 l 0 -5.076 l 0.604 0 l 0 6.236 l -0.514 0 c -0.114 -0.21 -0.261 -0.456 -0.441 -0.738 c -0.174 -0.282 -0.366 -0.582 -0.576 -0.9 c -0.21 -0.324 -0.432 -0.652 -0.666 -0.988 c -0.234 -0.342 -0.467 -0.672 -0.701 -0.99 c -0.228 -0.324 -0.454 -0.628 -0.676 -0.91 c -0.216 -0.282 -0.41 -0.525 -0.584 -0.729 l 0 5.256 l -0.604 0 l 0 -6.236 z m 8.189 1.477 c 0.312 0 0.597 0.06 0.855 0.18 c 0.258 0.114 0.48 0.278 0.666 0.494 c 0.192 0.21 0.339 0.466 0.441 0.766 c 0.108 0.3 0.162 0.632 0.162 0.998 c 0 0.366 -0.054 0.7 -0.162 1 c -0.102 0.3 -0.249 0.554 -0.441 0.764 c -0.186 0.21 -0.408 0.376 -0.666 0.496 c -0.258 0.114 -0.543 0.17 -0.855 0.17 c -0.312 0 -0.597 -0.056 -0.855 -0.17 c -0.258 -0.12 -0.482 -0.286 -0.674 -0.496 c -0.186 -0.21 -0.333 -0.464 -0.441 -0.764 c -0.102 -0.3 -0.152 -0.634 -0.152 -1 c 0 -0.366 0.05 -0.698 0.152 -0.998 c 0.108 -0.3 0.255 -0.556 0.441 -0.766 c 0.192 -0.216 0.416 -0.38 0.674 -0.494 c 0.258 -0.12 0.543 -0.18 0.855 -0.18 z m 0 0.529 c -0.462 0 -0.828 0.175 -1.098 0.523 c -0.27 0.342 -0.404 0.803 -0.404 1.385 c 0 0.582 0.134 1.045 0.404 1.387 c 0.27 0.342 0.636 0.514 1.098 0.514 c 0.462 0 0.828 -0.172 1.098 -0.514 c 0.27 -0.342 0.406 -0.805 0.406 -1.387 c 0 -0.582 -0.136 -1.043 -0.406 -1.385 c -0.27 -0.348 -0.636 -0.523 -1.098 -0.523 z m 3.02 1.977 l 2.463 0 l 0 0.34 c -0.133 0.16 -0.28 0.373 -0.439 0.643 c -0.156 0.265 -0.303 0.567 -0.443 0.902 c -0.14 0.332 -0.264 0.684 -0.369 1.059 c -0.101 0.374 -0.164 0.745 -0.188 1.111 l -0.404 0 c 0.023 -0.324 0.082 -0.667 0.176 -1.029 c 0.098 -0.363 0.215 -0.715 0.352 -1.055 c 0.14 -0.339 0.291 -0.651 0.451 -0.936 c 0.164 -0.285 0.321 -0.512 0.473 -0.684 l -2.07 0 l 0 -0.352 z" style="fill:#ececec;fill-opacity:1"/>
</svg>
